src/16/mimetypes/text-dockerfile.svg

<?xml version="1.0" encoding="UTF-8" standalone="no"?>
<svg
   xmlns:dc="http://purl.org/dc/elements/1.1/"
   xmlns:cc="http://creativecommons.org/ns#"
   xmlns:rdf="http://www.w3.org/1999/02/22-rdf-syntax-ns#"
   xmlns:svg="http://www.w3.org/2000/svg"
   xmlns="http://www.w3.org/2000/svg"
   xmlns:sodipodi="http://sodipodi.sourceforge.net/DTD/sodipodi-0.dtd"
   xmlns:inkscape="http://www.inkscape.org/namespaces/inkscape"
   width="16"
   height="16"
   viewBox="0 0 16 16"
   version="1.1"
   id="svg12"
   sodipodi:docname="text-dockerfile.svg"
   inkscape:version="0.92.1 r">
  <metadata
     id="metadata18">
    <rdf:RDF>
      <cc:Work
         rdf:about="">
        <dc:format>image/svg+xml</dc:format>
        <dc:type
           rdf:resource="http://purl.org/dc/dcmitype/StillImage" />
        <dc:title></dc:title>
      </cc:Work>
    </rdf:RDF>
  </metadata>
  <defs
     id="defs16" />
  <sodipodi:namedview
     pagecolor="#ffffff"
     bordercolor="#e2e2e2"
     borderopacity="1"
     objecttolerance="10"
     gridtolerance="10"
     guidetolerance="10"
     inkscape:pageopacity="0"
     inkscape:pageshadow="2"
     inkscape:window-width="640"
     inkscape:window-height="480"
     id="namedview14"
     showgrid="false"
     inkscape:showpageshadow="false"
     inkscape:zoom="1"
     inkscape:cx="4.5063675"
     inkscape:cy="4.9991319"
     inkscape:current-layer="svg12">
    <inkscape:grid
       type="xygrid"
       id="grid4501" />
  </sodipodi:namedview>
  <path
     style="color:#000000;clip-rule:nonzero;display:inline;overflow:visible;visibility:visible;opacity:1;isolation:auto;mix-blend-mode:normal;color-interpolation:sRGB;color-interpolation-filters:linearRGB;solid-color:#000000;solid-opacity:1;vector-effect:none;fill:#22a7f0;fill-opacity:1;fill-rule:nonzero;stroke:none;stroke-width:0.01634563;stroke-linecap:butt;stroke-linejoin:miter;stroke-miterlimit:4;stroke-dasharray:none;stroke-dashoffset:0;stroke-opacity:1;marker:none;color-rendering:auto;image-rendering:auto;shape-rendering:auto;text-rendering:auto;enable-background:accumulate"
     d="M 5,3 V 5 H 7 V 3 Z m 3,0 v 2 h 2 V 3 Z M 3,6 V 8 H 5 V 6 Z M 6,6 V 8 H 8 V 6 Z m 3,0 v 2 h 2 V 6 Z"
     id="rect40"
     inkscape:connector-curvature="0"
     sodipodi:nodetypes="ccccccccccccccccccccccccc" />
  <path
     style="color:#000000;clip-rule:nonzero;display:inline;overflow:visible;visibility:visible;opacity:1;isolation:auto;mix-blend-mode:normal;color-interpolation:sRGB;color-interpolation-filters:linearRGB;solid-color:#000000;solid-opacity:1;vector-effect:none;fill:#22a7f0;fill-opacity:1;fill-rule:nonzero;stroke:none;stroke-width:0.01365246;stroke-linecap:butt;stroke-linejoin:miter;stroke-miterlimit:4;stroke-dasharray:none;stroke-dashoffset:0;stroke-opacity:1;marker:none;color-rendering:auto;image-rendering:auto;shape-rendering:auto;text-rendering:auto;enable-background:accumulate"
     d="M 12.429031,6.2332798 C 11.89767,6.5974512 11.770714,7.25677 11.936375,7.87928 12.103873,8.5013305 12.527397,8.9500111 13.169652,9 c 0.21463,0.6070664 0.788404,1.013776 1.432304,1.014678 C 15.245848,10.013843 15.819622,9.6070664 16.034253,9 15.819622,8.3929252 15.245848,7.9878523 14.601956,7.9869503 14.294773,7.9877855 13.995032,8.0815825 13.742248,8.2561135 13.844965,7.966203 13.857619,7.6511185 13.778163,7.3539999 13.610907,6.7326008 13.070559,6.2840622 12.429056,6.2332798 Z M 13.169652,9 H 1 c 0,3.360657 2.7241649,5.071772 6.0848299,5.071772 3.3606571,0 6.0848221,-1.711115 6.0848221,-5.071772 z M 3.5213338,9.674779 c 0.4612882,0 0.8352363,0.373948 0.8352363,0.835236 0,0.461288 -0.373948,0.835237 -0.8352363,0.835237 -0.4612882,0 -0.8352362,-0.373949 -0.8352362,-0.835237 0,-0.461288 0.373948,-0.835236 0.8352362,-0.835236 z"
     id="rect40-3"
     inkscape:connector-curvature="0"
     sodipodi:nodetypes="ccccccccccccscsssss" />
</svg>

<svg xmlns="http://www.w3.org/2000/svg" width="16" height="16"><path style="isolation:auto;mix-blend-mode:normal;solid-color:#000;solid-opacity:1;marker:none" d="M5 3v2h2V3zm3 0v2h2V3zM3 6v2h2V6zm3 0v2h2V6zm3 0v2h2V6z" color="#000" overflow="visible" fill="#22a7f0" stroke-width=".016"/><path style="isolation:auto;mix-blend-mode:normal;solid-color:#000;solid-opacity:1;marker:none" d="M12.429 6.233c-.531.364-.658 1.024-.493 1.646.168.622.591 1.071 1.234 1.121a1.522 1.522 0 0 0 1.432 1.015c.644-.001 1.218-.408 1.432-1.015a1.52 1.52 0 0 0-1.432-1.013 1.52 1.52 0 0 0-.86.27 1.521 1.521 0 0 0-1.313-2.023zM13.169 9H1c0 3.36 2.724 5.072 6.085 5.072 3.36 0 6.085-1.711 6.085-5.072zm-9.648.675a.835.835 0 1 1 0 1.67.835.835 0 0 1 0-1.67z" color="#000" overflow="visible" fill="#22a7f0" stroke-width=".014"/></svg>
